walledcityscale/nineveh-650.svg

<?xml version="1.0" encoding="UTF-8" standalone="no"?>
<!-- Created with Inkscape (http://www.inkscape.org/) -->

<svg
   version="1.1"
   id="svg42775"
   width="425"
   height="550"
   viewBox="0 0 425 550"
   xml:space="preserve"
   xmlns:xlink="http://www.w3.org/1999/xlink"
   xmlns="http://www.w3.org/2000/svg"
   xmlns:svg="http://www.w3.org/2000/svg"><defs
     id="defs42779" /><image
     width="791.6"
     height="791.6"
     preserveAspectRatio="none"
     style="display:none;image-rendering:optimizeSpeed"
     xlink:href="basemap/ninevehosm.png"
     id="image42783"
     x="-235"
     y="-50" /><path
     style="fill:#808080;stroke:none;stroke-width:2;stroke-linejoin:round"
     d="m 290.45,498.54 83.9,5.26 -6.48,-49.01 -21.52,-118.27 -10.83,-86.67 -4.2,-18.21 -28.96,-72.86 -13.83,-27.79 -16.47,-27.38 -56.09,-61.28 -87.8,56.38 -83.14,59.15 75.81,114.72 24.75,32.84 50.19,59.04 8.16,22.62 22.17,13.05 49.09,67.38 z"
     id="path52338" /><path
     style="fill:#c6ecff;fill-opacity:1;stroke:none;stroke-width:2;stroke-linejoin:round"
     d="m -18.2,383.47 2.5,-32.5 43.34,47.19 35.81,40.3 20.75,31.53 37.91,41.74 55.06,56.83 21.7,18.04 43.76,18.37 43.69,12.43 16.86,23.88 -17.49,16.27 -24.99,-9.57 -44.82,-14.57 -17.87,-12.85 -22.81,-29.64 -66.11,-48.9 -23.12,-33.34 -14.96,-10.67 -10.69,-33.39 -14.9,-25.42 z"
     id="path75862" /></svg>

<?xml version="1.0" encoding="UTF-8" standalone="no"?>
<!-- Created with Inkscape (http://www.inkscape.org/) -->

<svg
   version="1.1"
   id="svg42775"
   width="425"
   height="550"
   viewBox="0 0 425 550"
   xml:space="preserve"
   xmlns:xlink="http://www.w3.org/1999/xlink"
   xmlns="http://www.w3.org/2000/svg"
   xmlns:svg="http://www.w3.org/2000/svg"><defs
     id="defs42779" /><g
     id="g42781"><image
       width="791.6"
       height="791.6"
       preserveAspectRatio="none"
       style="display:none;image-rendering:optimizeSpeed"
       xlink:href="basemap/ninevehosm.png"
       id="image42783"
       x="-235"
       y="-50" /><path
       style="opacity:1;fill:#808080;stroke:none;stroke-width:2;stroke-linejoin:round"
       d="m 290.45,498.54 83.9,5.26 -6.48,-49.01 -21.52,-118.27 -10.83,-86.67 -4.2,-18.21 -28.96,-72.86 -13.83,-27.79 -16.47,-27.38 -56.09,-61.28 -87.8,56.38 -83.14,59.15 75.81,114.72 24.75,32.84 50.19,59.04 8.16,22.62 22.17,13.05 49.09,67.38 z"
       id="path52338" /><path
       style="opacity:1;fill:#c6ecff;fill-opacity:1;stroke:none;stroke-width:2;stroke-linejoin:round"
       d="m -18.2,383.47 2.5,-32.5 43.34,47.19 35.81,40.3 20.75,31.53 37.91,41.74 55.06,56.83 21.7,18.04 43.76,18.37 43.69,12.43 16.86,23.88 -17.49,16.27 -24.99,-9.57 L 215.88,633.41 198.01,620.56 175.2,590.92 109.09,542.02 85.97,508.68 71.01,498.01 60.32,464.62 45.42,439.2 Z"
       id="path75862" /></g></svg>
